backend/papyrus-web-graphics/src/main/resources/icons-override/full/obj16/Node.svg

<?xml version="1.0" encoding="UTF-8" standalone="no"?>
<svg
   xmlns:dc="http://purl.org/dc/elements/1.1/"
   xmlns:cc="http://creativecommons.org/ns#"
   xmlns:rdf="http://www.w3.org/1999/02/22-rdf-syntax-ns#"
   xmlns:svg="http://www.w3.org/2000/svg"
   xmlns="http://www.w3.org/2000/svg"
   xmlns:xlink="http://www.w3.org/1999/xlink"
   xmlns:sodipodi="http://sodipodi.sourceforge.net/DTD/sodipodi-0.dtd"
   xmlns:inkscape="http://www.inkscape.org/namespaces/inkscape"
   width="18"
   height="16"
   viewBox="0 0 4.7624999 4.2333332"
   version="1.1"
   id="svg8"
   inkscape:version="1.0.1 (3bc2e813f5, 2020-09-07)"
   sodipodi:docname="Node.svg">
  <defs
     id="defs2">
    <linearGradient
       inkscape:collect="always"
       id="linearGradient963">
      <stop
         style="stop-color:#cae2f9;stop-opacity:1;"
         offset="0"
         id="stop959" />
      <stop
         style="stop-color:#4e8ac4;stop-opacity:1"
         offset="1"
         id="stop961" />
    </linearGradient>
    <inkscape:perspective
       sodipodi:type="inkscape:persp3d"
       inkscape:vp_x="0 : 2.1166666 : 1"
       inkscape:vp_y="325.56816 : -945.51858 : 0"
       inkscape:vp_z="4.7624999 : 2.1166666 : 1"
       inkscape:persp3d-origin="2.3812499 : 1.4111111 : 1"
       id="perspective924" />
    <linearGradient
       inkscape:collect="always"
       id="linearGradient872-1">
      <stop
         style="stop-color:#cae2f9;stop-opacity:1;"
         offset="0"
         id="stop868" />
      <stop
         style="stop-color:#fdfeff;stop-opacity:1"
         offset="1"
         id="stop870" />
    </linearGradient>
    <linearGradient
       inkscape:collect="always"
       xlink:href="#linearGradient872-1"
       id="linearGradient874"
       x1="46.980949"
       y1="18.523272"
       x2="132.64549"
       y2="136.44"
       gradientUnits="userSpaceOnUse"
       gradientTransform="matrix(0.02536979,0,0,0.01832205,0.02509801,1.0543593)" />
    <linearGradient
       inkscape:collect="always"
       xlink:href="#linearGradient963"
       id="linearGradient874-6"
       x1="11.664217"
       y1="60.754475"
       x2="26.515024"
       y2="61.177567"
       gradientUnits="userSpaceOnUse"
       gradientTransform="matrix(0.02536979,0,0,0.01832205,3.4592737,1.0509064)" />
    <linearGradient
       inkscape:collect="always"
       xlink:href="#linearGradient963"
       id="linearGradient874-5"
       x1="61.578354"
       y1="136.88718"
       x2="80.232216"
       y2="84.709557"
       gradientUnits="userSpaceOnUse"
       gradientTransform="matrix(0.02536979,0,0,0.01832205,0.02509799,-1.5181564)" />
  </defs>
  <sodipodi:namedview
     id="base"
     pagecolor="#ffffff"
     bordercolor="#666666"
     borderopacity="1.0"
     inkscape:pageopacity="0"
     inkscape:pageshadow="2"
     inkscape:zoom="52.262132"
     inkscape:cx="11.440569"
     inkscape:cy="13.985871"
     inkscape:document-units="mm"
     inkscape:current-layer="g882"
     inkscape:document-rotation="0"
     showgrid="false"
     inkscape:pagecheckerboard="false"
     inkscape:window-width="3840"
     inkscape:window-height="1995"
     inkscape:window-x="1"
     inkscape:window-y="2160"
     inkscape:window-maximized="1"
     units="px" />
  
  <g>
    <g
       id="g882">
      <g
         id="g869">
        <path
           id="rect881"
           style="fill:url(#linearGradient874);fill-opacity:1;stroke:#4d81b4;stroke-width:0.114;stroke-linejoin:round;stroke-miterlimit:4;stroke-dasharray:none;stroke-dashoffset:0;stroke-opacity:1"
           d="M 0.62026783,1.1254601 H 3.6856059 V 3.6979759 H 0.62026783 Z" />
        <path
           id="rect881-3"
           style="fill:url(#linearGradient874-6);fill-opacity:1;stroke:#4d81b4;stroke-width:0.114;stroke-linejoin:round;stroke-miterlimit:4;stroke-dasharray:none;stroke-dashoffset:0;stroke-opacity:1"
           d="M 3.6856059,1.12546 4.2340054,0.72499927 4.2326613,3.1684829 3.6856059,3.6979759 Z"
           sodipodi:nodetypes="ccccc" />
        <path
           id="rect881-9"
           style="fill:url(#linearGradient874-5);fill-opacity:1;stroke:#4d81b4;stroke-width:0.114;stroke-linecap:square;stroke-linejoin:round;stroke-miterlimit:4;stroke-dasharray:none;stroke-dashoffset:0;stroke-opacity:1"
           d="M 1.1693393,0.72499927 H 4.2346774 L 3.6856059,1.1254601 H 0.62026783 Z"
           sodipodi:nodetypes="ccccc" />
        <path
           style="fill:none;stroke:#4d81b4;stroke-width:0.264583px;stroke-linecap:butt;stroke-linejoin:miter;stroke-opacity:1"
           d="M 1.6130325,1.9048381 H 2.6928413"
           id="path863" />
      </g>
    </g>
  </g>
</svg>

<svg xmlns="http://www.w3.org/2000/svg" xmlns:xlink="http://www.w3.org/1999/xlink" width="16" height="16">
    <defs>
        <linearGradient id="b">
            <stop offset="0" style="stop-color:#cae2f9;stop-opacity:1"/>
            <stop offset="1" style="stop-color:#4e8ac4;stop-opacity:1"/>
        </linearGradient>
        <linearGradient id="a">
            <stop offset="0" style="stop-color:#cae2f9;stop-opacity:1"/>
            <stop offset="1" style="stop-color:#fdfeff;stop-opacity:1"/>
        </linearGradient>
        <linearGradient xlink:href="#a" id="c" x1="46.981" x2="132.645" y1="18.523" y2="136.44" gradientTransform="matrix(.02537 0 0 .01832 .025 1.054)" gradientUnits="userSpaceOnUse"/>
        <linearGradient xlink:href="#b" id="d" x1="11.664" x2="26.515" y1="60.754" y2="61.178" gradientTransform="matrix(.02537 0 0 .01832 3.46 1.05)" gradientUnits="userSpaceOnUse"/>
        <linearGradient xlink:href="#b" id="e" x1="61.578" x2="80.232" y1="136.887" y2="84.71" gradientTransform="matrix(.02537 0 0 .01832 .025 -1.518)" gradientUnits="userSpaceOnUse"/>
    </defs>
    <path d="M.62 1.125h3.066v2.573H.62Z" style="fill:url(#c);fill-opacity:1;stroke:#4d81b4;stroke-width:.114;stroke-linejoin:round;stroke-miterlimit:4;stroke-dasharray:none;stroke-dashoffset:0;stroke-opacity:1" transform="translate(-1.29 -.186)scale(3.98227)"/>
    <path d="m3.686 1.125.548-.4-.001 2.443-.547.53Z" style="fill:url(#d);fill-opacity:1;stroke:#4d81b4;stroke-width:.114;stroke-linejoin:round;stroke-miterlimit:4;stroke-dasharray:none;stroke-dashoffset:0;stroke-opacity:1" transform="translate(-1.29 -.186)scale(3.98227)"/>
    <path d="M1.17.725h3.065l-.55.4H.62Z" style="fill:url(#e);fill-opacity:1;stroke:#4d81b4;stroke-width:.114;stroke-linecap:square;stroke-linejoin:round;stroke-miterlimit:4;stroke-dasharray:none;stroke-dashoffset:0;stroke-opacity:1" transform="translate(-1.29 -.186)scale(3.98227)"/>
    <path d="M1.613 1.905h1.08" style="fill:none;stroke:#4d81b4;stroke-width:.264583px;stroke-linecap:butt;stroke-linejoin:miter;stroke-opacity:1" transform="translate(-1.29 -.186)scale(3.98227)"/>
</svg>
